**kern	**kern	**dynam
*part1	*part1	*part1
*staff2	*staff1	*
*I"Piano	*	*
*clefF4	*clefG2	*
*k[b-e-]	*k[b-e-]	*
=1	=1	=1
*^	*	*
2G]	8.CL]	4c 4e-	<
.	16BB-Jk	.	.
.	8AAL	4g 4ee- 4gg	.
.	8E-J	.	.
=	=	=	=
4A	4D	2f#X 2dd 2ff#X	[ >
4AA	[4DD	.	.
=	=	=	=
8F#XL	2DD]	4d 4a 4cc 4dd	]
8DJ	.	.	.
4G	.	4d 4b- 4dd	.
=	=	=	=
8E-L	4.DD	4c 4f#X 4b-	.
[8DJ	.	.	.
4D]	.	4B- 4d 4g	.
.	[8GG	.	.
=	=	=	=
4E-	2GG_	2c#X 2e- 2g	.
4G	.	.	.
=	=	=	=
2D	4GG]	2B- 2d 2g	.
.	[4GG	.	.
=	=	=	=
*	*^	*	*
4D	2GG_	[2D\	2r	.
[4G	.	.	.	.
*v	*v	*v	*	*
=	=	=
*-	*-	*-
!!!system-decoration: {(s1,s2)}
